X: 8
T:Gander in the Pratie Hole
R:Jig
Z:Added by Alf Warnock
M:6/8
L:1/8
K:D
|:FAD FAD|GFG EFG|FAD FAG|FDD D2E|
FAD FAD|G2G EFG|FAD FAG|[1 FDD D2E:|[2 FDD D2A||
Adc ded|cAB =cBA|Add ded|^cAB =c2B|
Ad^c ded|cAB =cde|fed e^cA|GEA D2:|

